X: 40029
T: Three Sisters, The
R: reel
M: 4/4
K: Eminor
|:EBBE cEBG|EBBE AGFD|EBBE cEBG|A3G FGAB|
EBBE cEBG|EBBE AGFD|B3G AGFD|1 EGFD E3G:|2 EGFD E3g||
|:e3g eg g2|f3g agfd|e3g eg g2|fdaf gfed
e3g eBeg|f3g aggf|bgaf gfed|1 egfd e3g:|2 egfd e3B||

